packages/devextreme-scss/images/icons/fluent/arrowsortup.svg

<svg width="20" height="20" viewBox="0 0 20 20" fill="none" xmlns="http://www.w3.org/2000/svg">
<path d="M9.99756 4.7098L7.35319 7.35418C7.15792 7.54944 6.84134 7.54944 6.64608 7.35418C6.45082 7.15891 6.45082 6.84233 6.64608 6.64707L10.1144 3.17874C10.2061 3.06947 10.3437 3 10.4975 3H10.4992C10.5779 2.99998 10.6566 3.01841 10.7282 3.05531C10.7734 3.07847 10.8157 3.10895 10.8535 3.14675L10.8635 3.15701L14.3536 6.64709C14.5488 6.84235 14.5488 7.15893 14.3536 7.35419C14.1583 7.54946 13.8417 7.54946 13.6464 7.35419L10.9975 4.70529V16.5C10.9975 16.7761 10.7737 17 10.4975 17C10.2214 17 9.99756 16.7761 9.99756 16.5V4.7098Z" fill="black"/>
</svg>

<!-- Generated by IcoMoon.io -->
<svg version="1.1" xmlns="http://www.w3.org/2000/svg" width="20" height="20" viewBox="0 0 20 20">
<path d="M9.998 4.71l-2.644 2.644c-0.195 0.195-0.512 0.195-0.707 0s-0.195-0.512 0-0.707l3.468-3.468c0.092-0.109 0.229-0.179 0.383-0.179h0.002c0.079-0 0.157 0.018 0.229 0.055 0.045 0.023 0.088 0.054 0.125 0.091l0.010 0.010 3.49 3.49c0.195 0.195 0.195 0.512 0 0.707s-0.512 0.195-0.707 0l-2.649-2.649v11.795c0 0.276-0.224 0.5-0.5 0.5s-0.5-0.224-0.5-0.5v-11.79z"></path>
</svg>
